X: ~
T: Babes In The Wood
M: 2/4
L: 1/8
R: polka
K: D Major
|: F>G |
A/B/A/G/ FA | de f2 | ga/g/ fe | df A2 |
  A/B/A/G/ FA | de f2 | ga/g/ fe | d2 :|
|: cd | 
e>f ed | ce a2 | e>^d ef | ge cA |
e>f ed | c/d/e ab/a/ | ga/g/ fe | d2 :|
